img/calendar-blue.svg

<svg width="21" height="23" fill="none" xmlns="http://www.w3.org/2000/svg"><path fill-rule="evenodd" clip-rule="evenodd" d="M16.406 3.02498h2.845c.966 0 1.749.822 1.749 1.837V21.164C21 22.179 20.217 23 19.251 23H1.75C.784 23 0 22.179 0 21.164V4.86198c0-1.015.784-1.837 1.75-1.837h2.843v-1.377c0-.381.294-.688996.657-.688996.362 0 .656.307996.656.688996v1.377h3.938v-1.377c0-.381.294-.688996.657-.688996.361 0 .655.307996.655.688996v1.377h3.938v-1.377c0-.381.293-.688996.656-.688996.362 0 .656.307996.656.688996v1.377zM19.5646 21.484c.082-.0861.1264-.2012.1234-.32h.001V4.86198c0-.253-.196-.459-.437-.459h-2.845v1.378c0 .381-.294.689-.656.689-.363 0-.656-.308-.656-.689v-1.378h-3.938v1.378c0 .381-.294.689-.655.689-.363 0-.657-.308-.657-.689v-1.378H5.907v1.378c0 .381-.294.689-.656.689-.363 0-.657-.308-.657-.689v-1.378H1.75c-.24737.00655-.44304.2116-.438.459V21.164c-.00504.2474.19063.4524.438.459h17.501c.1188-.0029.2316-.0529.3136-.139z" fill="#81B3D2"/><path fill-rule="evenodd" clip-rule="evenodd" d="M4.59399 9.2251h2.625v2.066h-2.625v-2.066zm0 3.443h2.625v2.067h-2.625v-2.067zm2.625 3.444h-2.625v2.066h2.625v-2.066zm1.969 0H11.813v2.066H9.18799v-2.066zm2.62501-3.444H9.18799v2.067H11.813v-2.067zm-2.62501-3.443H11.813v2.066H9.18799v-2.066zm7.21801 6.887h-2.625v2.066h2.625v-2.066zm-2.625-3.444h2.625v2.067h-2.625v-2.067zm2.625-3.443h-2.625v2.066h2.625v-2.066z" fill="#81B3D2"/></svg>

<svg width="21" height="23" viewBox="0 0 21 23" fill="none" xmlns="http://www.w3.org/2000/svg">
<path fill-rule="evenodd" clip-rule="evenodd" d="M16.406 3.02498H19.251C20.217 3.02498 21 3.84698 21 4.86198V21.164C21 22.179 20.217 23 19.251 23H1.75C0.784 23 0 22.179 0 21.164V4.86198C0 3.84698 0.784 3.02498 1.75 3.02498H4.593V1.64798C4.593 1.26698 4.887 0.958984 5.25 0.958984C5.612 0.958984 5.906 1.26698 5.906 1.64798V3.02498H9.844V1.64798C9.844 1.26698 10.138 0.958984 10.501 0.958984C10.862 0.958984 11.156 1.26698 11.156 1.64798V3.02498H15.094V1.64798C15.094 1.26698 15.387 0.958984 15.75 0.958984C16.112 0.958984 16.406 1.26698 16.406 1.64798V3.02498ZM19.5646 21.484C19.6466 21.3979 19.691 21.2828 19.688 21.164H19.689V4.86198C19.689 4.60898 19.493 4.40298 19.252 4.40298H16.407V5.78098C16.407 6.16198 16.113 6.46998 15.751 6.46998C15.388 6.46998 15.095 6.16198 15.095 5.78098V4.40298H11.157V5.78098C11.157 6.16198 10.863 6.46998 10.502 6.46998C10.139 6.46998 9.845 6.16198 9.845 5.78098V4.40298H5.907V5.78098C5.907 6.16198 5.613 6.46998 5.251 6.46998C4.888 6.46998 4.594 6.16198 4.594 5.78098V4.40298H1.75C1.50263 4.40953 1.30696 4.61458 1.312 4.86198V21.164C1.30696 21.4114 1.50263 21.6164 1.75 21.623H19.251C19.3698 21.6201 19.4826 21.5701 19.5646 21.484Z" fill="#81B3D2"/>
<path fill-rule="evenodd" clip-rule="evenodd" d="M4.59399 9.2251H7.21899V11.2911H4.59399V9.2251ZM4.59399 12.6681H7.21899V14.7351H4.59399V12.6681ZM7.21899 16.1121H4.59399V18.1781H7.21899V16.1121ZM9.18799 16.1121H11.813V18.1781H9.18799V16.1121ZM11.813 12.6681H9.18799V14.7351H11.813V12.6681ZM9.18799 9.2251H11.813V11.2911H9.18799V9.2251ZM16.406 16.1121H13.781V18.1781H16.406V16.1121ZM13.781 12.6681H16.406V14.7351H13.781V12.6681ZM16.406 9.2251H13.781V11.2911H16.406V9.2251Z" fill="#81B3D2"/>
</svg>
